!!!COM:	Bach, Johann Sebastian
!!!CDT:	1685/02/21/-1750/07/28/
!!!OTL@@DE:	Sei Lob und Ehr dem h&ouml;chsten Gut
!!!SCT:	BWV 251
!!!PC#:	329
!!!AGN:	chorale
**kern	**kern	**kern	**kern	**chordsymbol
*ICvox	*ICvox	*ICvox	*ICvox	*
*Ibass	*Itenor	*Ialto	*Isoprn	*
*I"Bass	*I"Tenor	*I"Alto	*I"Soprano	*
*>[A,A,B]	*>[A,A,B]	*>[A,A,B]	*>[A,A,B]	*>[A,A,B]
*>norep[A,B]	*>norep[A,B]	*>norep[A,B]	*>norep[A,B]	*>norep[A,B]
*>A	*>A	*>A	*>A	*>A
*clefF4	*clefGv2	*clefG2	*clefG2	*
*k[f#]	*k[f#]	*k[f#]	*k[f#]	*
*G:	*G:	*G:	*G:	*G:
*M4/4	*M4/4	*M4/4	*M4/4	*M4/4
*met(c)	*met(c)	*met(c)	*met(c)	*met(c)
*MM100	*MM100	*MM100	*MM100	*MM100
4G	4g	4b	4dd	GM
=1	=1	=1	=1	=1
8F#L	4d	8aL	4dd	DM
8EJ	.	8gJ	.	E(mm)
8DL	4A	4f#	4dd	DMm
8CJ	.	.	.	DMm
8BBL	8GL	4g	8ddL	GM
8GGJ	8BJ	.	8eeJ	Em
8AAL	8AL	8cL	4ff	FM
8BBJ	8GJ	8dJ	.	GMm
=2	=2	=2	=2	=2
4C	4c	8eL	4ee	CM(?5)
.	.	8fJ	.	CM(?5)
4G	8dL	4g	4dd	G(?m)
.	16eL	.	.	G(?m)
.	16fJJ	.	.	G(?m)
4A;	4e;	4c;	4cc;	Am
4F#	4d	4a	8ddL	DMm
.	.	.	8ccJ	DMm
=3	=3	=3	=3	=3
4.G	8dL	4d	8bL	GM
.	8cJ	.	8aJ	GM
.	4B	8eL	8gL	Em
8F#	.	8f#J	8aJ	B(P5)
8EL	4e	8gL	4b	Em
8F#J	.	8f#J	.	Em
8GL	4A	4e	4cc#	AM
8AJ	.	.	.	AM
=4	=4	=4	=4	=4
8F#L	8A	4f#	4dd	DM
8B	4d	.	.	Bm
8G	.	4g	4ee	E(mm)
8AJ	8c#	.	.	AMm
4D;	4d;	4f#;	4dd;	DM(?5)
=:|!	=:|!	=:|!	=:|!	=:|!
*>B	*>B	*>B	*>B	*>B
8GL	4d	8bL	4dd	GM
8AJ	.	8aJ	.	D(P5)
=5	=5	=5	=5	=5
8BL	8dL	8gL	4gg	GM
8c#J	8eJ	8aJ	.	AMm
4d	8f#L	8aL	4ff#	DM
.	8gJ	8bJ	.	GMM
8AL	4a	8cc#L	4ee	AM
8BJ	.	8bJ	.	AM
4c	4d	4a	4ff#	DMm
=6	=6	=6	=6	=6
8BL	8dL	8bL	8ggL	GMM
8GJ	8BJ	8ddJ	8ff#J	GMM
4A	8eL	4cc#	4ee	AMm
.	16f#L	.	.	AMm
.	16gJJ	.	.	AMm
4D;	4f#;	4a;	4dd;	DM
8GL	8BL	8gL	4dd	GM
8F#J	8AJ	8aJ	.	DM
=7	=7	=7	=7	=7
4E	4G	8bL	4gg	Em
.	.	8ccnXJ	.	CM
4BB	8gL	8bL	4dd	GM
.	8f#J	8aJ	.	Bmm
8CL	4e	4g	4ee	CM
8DJ	.	.	.	CM
4E	4e	4g	8bL	Em
.	.	.	8ccJ	CM
=8	=8	=8	=8	=8
8F#L	8dL	8f#L	4dd	DM(?5)
8G#J	8BJ	8eJ	.	EMm
4A	4A	8eL	4cc	Am
.	.	8f#J	.	F#d
4E;	4B;	4g#;	4b;	EM
4G	8BL	4g	4b	GM(?5)
.	8GJ	.	.	GM(?5)
=9	=9	=9	=9	=9
8F#L	4d	8aL	8aL	DM
8GJ	.	8dJ	8bJ	GM
8EL	8cL	8gL	4cc	CM
8F#J	8AJ	8aJ	.	F#d
8GL	4B	8d	4b	GM
!!This 8d was falsely encoded as 8c. Nathaniel Condit-Schultz, 2018/07/25
8EJ	.	4g	.	Em
8CL	8cL	.	4a	A(mm)
8DJ	8AJ	8f#	.	DM
=10	=10	=10	=10	=10
8EL	4e	8gL	16eLL	Em(?5)
.	.	.	16f#JJ	Em(?5)
8DJ	.	8BJ	4g	Emm
8CL	4A	8eL	.	Amm
8DJ	.	8dJ	8f#	DM
4GG;	4B;	4d;	4g;	GM
==	==	==	==	==
*-	*-	*-	*-	*-
!!!hum2abc: -Q ''
!!!title: @{PC#}. @{OTL@@DE}
!!!YOR1: 371 vierstimmige Choralges&auml;nge von Johann Sebastian Bach, 
!!!YOR2: 4th ed. by Alfred D&ouml;rffel (Leipzig: Breitkopf und H&auml;rtel, 
!!!YOR2: c.1875). 178 pp. Plate "V.A.10".  reprint: J.S. Bach, 371 Four-Part 
!!!YOR4: Chorales (New York: Associated Music Publishers, Inc., c.1940).
!!!SMS: B&H, 4th ed, Alfred D&ouml;rffel, c.1875, plate V.A.10
!!!EED:  Craig Stuart Sapp
!!!EEV:  2009/05/22
!!! **chordsymbol annotations generated by the FlexibleChoraleHarmonicAnalysis package.
!!! Condit-Schultz, Ju, and Fujinaga, ISMIR (2018)
!!! Created on Sat Mar 02 11:23:33 2019
